packages/kaspersky-hexa-ui-icons/src/iconsSVGs/16/StatusPremiumNEWSolid.svg

<svg width="16" height="16" viewBox="0 0 16 16" fill="none" xmlns="http://www.w3.org/2000/svg">
<path fill-rule="evenodd" clip-rule="evenodd" d="M13.5 9.52431C13.5 13.4906 7.99931 15.3827 7.99931 15.3827L7.99671 15.3818C7.86081 15.3338 2.5 13.44 2.5 9.52431V3.77345L7.99931 0.60376L13.5 3.77345V9.52431ZM8 5.3302C8.828 5.3302 9.5 6.0022 9.5 6.8302C9.5 7.3837 9.197 7.8622 8.75 8.12245V10.5802H7.25V8.12245C6.803 7.8622 6.5 7.3837 6.5 6.8302C6.5 6.0022 7.172 5.3302 8 5.3302Z" fill="black"/>
</svg>

<svg xmlns="http://www.w3.org/2000/svg" width="16" height="16" fill="none" viewBox="0 0 16 16"><path fill="#000" fill-rule="evenodd" d="M13.5 9.5243c0 3.9663-5.5007 5.8584-5.5007 5.8584l-.0026-.0009C7.8608 15.3338 2.5 13.44 2.5 9.5243V3.7735L7.9993.6038 13.5 3.7735zM8 5.3302c.828 0 1.5.672 1.5 1.5 0 .5535-.303 1.032-.75 1.2923v2.4577h-1.5V8.1225c-.447-.2603-.75-.7388-.75-1.2923 0-.828.672-1.5 1.5-1.5"/></svg>
